X:1
T:Emma
T:Juan Alais (1844 - 1914)
T:Mazurka - No.5, Op.1 "Seis Piezas Faciles"
%%score { ( 1 2 3 ) ( 4 5 6 ) }
L:1/8
M:3/4
K:A
V:1 treble-8 nm="Guitare classique"
V:2 treble-8 
V:3 treble-8 
V:4 tab stafflines=6 strings=E2,A2,D3,G3,B3,E4 nostems nm="Guitare classique [Tablature]"
V:5 tab stafflines=6 strings=E2,A2,D3,G3,B3,E4 nostems 
V:6 tab stafflines=6 strings=E2,A2,D3,G3,B3,E4 nostems 
V:1
"^Intro.""_" [Ee]2 [F^d]2 [Gd]2 | [Ac]2 [B^d]2 [Ac]2 | [GB]2 [FA]2 [^DA]2 | %3
 [EG]2"^Hr.12" e'2 z2 |:"^Mazurka" (3!1!c!2!d!3!^d !4!e2"^₵5" a2 | (3!1!g!2!a!3!^a !4!b2 !4!b2 | %6
 (3ga^a b2 !4!^b2 | !4!c'2"^₵5" a2 a2 | (3!2!a!1!g!4!b !1!a2 f2 | a2 [eg]2 [eg]2 | %10
{/a} g2 [df]2 [df]2 |{/g} f2 [ce]2 [ce]2 | (3cd^d e2 a2 | (3ga^a b2 b2 | (3ga^a b2 ^b2 | %15
 c'2"^₵5" a2 a2 | (!3!g!1!f)e!2!dcB | !2!fe!3!dcB!2!A | G!2!fe!3!dcB | A2"^₵5" [cea]2 z2 :: %20
 !1!G!3!A !4!^AB !3!cB | !3!c2 B2 B2 | gf e^d cB | B2 A2 A2 | FG AB c^d |"^C2" !4!e2 !4!^d2 d>e | %26
 ^d2 c2 c>d | c2 B2 B2 | GA ^AB cB | c2 B2 B2 | gf fe e^d | ^d2 c2 c2 | ^Ac e=g fe | %33
 B^g fe !4!^dc | Bc BA GF | E2 [GBe]2 z2 :| (3cd^d e2 a2 | (3ga^a b2 b2 | (3ga^a b2 ^b2 | %39
 c'2 a2 a2 | (3agb a2 f2 | a2 [eg]2 [eg]2 |{/a} g2 [df]2 [df]2 |{/g} f2 [ce]2 [ce]2 | %44
 (3cd^d e2 a2 | (3ga^a b2 b2 | (3ga^a b2 ^b2 | c'2 a2 a2 | (gf)edcB | (fe)dcBA | GfedcB | %51
 A2 [cea]2 z2!fine! |:[K:D] z ABcde | ^e2 [Adf]2 [Adf]2 | f2 g2 f2 | !4!a2 !2!g2 !-(!!2!g!-)!b | %56
 (!2!b!1!^a) (!4!c'!1!b) (!2!ge) | !3!d2 !2!c2 c2 | cd ^de fg |{/g} !4!b2 !1!a2 a2 | z ABcde | %61
 ^e2 [Adf]2 [Adf]2 | f2 g2 f2 | a2 g2 !-(!g!-)!b | (b^a) (c'b) (ge) | d2 c2 c2 | AB cd ef | %67
 d2"^₵7" [dfd']2 z2!D.C.! :| %68
V:2
 E,2 E,2 E,2 | E,2 E,2 E,2 | E,2 E,2 E,2 | E,2 x4 |: A,6 | E,6 | E,4 E,2 | A,6 | A,4 A,2 | E,6 | %10
 E,6 | A,6 | A,6 | E,6 | E,4 E,2 | A,6 | D6 | !1!E6 | E,4 E,2 | A,2 A,2 z2 :: E,6 | E,6 | E,6 | %23
 B,6 | B, z z2 z2 | B,6 | F,6 | E,6 | E,6 | E,6 | E,6 | A,6 | ^A,6 | !2!B,6 | B,6 | E,2 E,2 z2 :| %36
 A,6 | E,6 | E,4 E,2 | A,6 | A,4 A,2 | E,6 | E,6 | A,6 | A,6 | E,6 | E,4 E,2 | A,6 | D6 | E6 | %50
 E,4 E,2 | A,2 A,2 z2 |:[K:D] D6 | D6 | ^D6 | !1!E6 | E,6 | A,6 | A,4 A,2 | D6 | D6 | D6 | ^D6 | %63
 E6 | E,6 | A,6 | A,4 A,2 | D2 D2 z2 :| %68
V:3
 x6 | x6 | x6 | x6 |: x2 x2 [ce]2 | x2 x2 [de]2 | x6 | x2 [ce]2 [ce]2 | x6 | x6 | x6 | x6 | %12
 x2 x2 [ce]2 | x2 x2 [de]2 | x6 | x2 [ce]2 [ce]2 | x6 | x6 | x6 | x6 :: x2 !2!E2 E2 | %21
 x2 !2![EG]2 [EG]2 | x2 [EG]2 [EG]2 | x2 ^D2 D2 | x6 | x2 [FA]2 [FA]2 | x2 [FA]2 [FA]2 | %27
 x2 [EG]2 [EG]2 | x2 E2 E2 | x2 [EG]2 [EG]2 | x2 [EG]2 [EG]2 | x2 [EA]2 [EA]2 | x2 ^A2 A2 | %33
 x2 G2 G2 | x2 ^D2 z2 | x6 :| x2 x2 [ce]2 | x2 x2 [de]2 | x6 | x2 [ce]2 [ce]2 | x6 | x6 | x6 | x6 | %44
 x2 x2 [ce]2 | x2 x2 [de]2 | x6 | x2 [ce]2 [ce]2 | x6 | x6 | x6 | x6 |:[K:D] x6 | x6 | %54
 x2 [AB]2 [AB]2 | x2 [GB]2 [GB] z | x2 [GB]2 [GB]2 | x2 !1![EG]2 [EG]2 | x2 x4 | x2 [df]2 [df]2 | %60
 x6 | x6 | x2 [AB]2 [AB]2 | x2 [GB]2 [GB] z | x2 [GB]2 [GB]2 | x2 [EG]2 [EG]2 | x2 x4 | x6 :| %68
V:4
 [!4!E,!1!E]2 [!4!F,!2!^D]2 [!3!G,!2!D]2 | [!3!A,!2!C]2 [!3!B,!2!^D]2 [!3!A,!2!C]2 | %2
 [!3!G,!2!B,]2 [!4!F,!3!A,]2 [!4!^D,!3!A,]2 | [!4!E,!3!G,]2"^Hr." !1!e2 x2 |: %4
 (3!2!C !2!D !2!^D !2!E2 !1!A2 | (3!1!G !1!A !1!^A !1!B2 !1!B2 | (3!1!G !1!A !1!^A !1!B2 !1!^B2 | %7
 !1!c2 !1!A2 !1!A2 | (3!1!A !1!G !1!B !1!A2 !1!F2 | !1!A2 [!2!E!1!G]2 [!2!E!1!G]2 | %10
{/!1!A} !1!G2 [!2!D!1!F]2 [!2!D!1!F]2 |{/!1!G} !1!F2 [!2!C!1!E]2 [!2!C!1!E]2 | %12
 (3!2!C !2!D !2!^D !2!E2 !1!A2 | (3!1!G !1!A !1!^A !1!B2 !1!B2 | (3!1!G !1!A !1!^A !1!B2 !1!^B2 | %15
 !1!c2 !1!A2 !1!A2 | (!1!G !1!F) !1!E !2!D !2!C !2!B, | !1!F !1!E !2!D !2!C !2!B, !3!A, | %18
 !3!G, !1!F !1!E !2!D !2!C !2!B, | !3!A,2 [!3!C!2!E!1!A]2 x2 :: %20
 !3!G, !3!A, !3!^A, !2!B, !2!C !2!B, | !2!C2 !2!B,2 !2!B,2 | !1!G !1!F !1!E !2!^D !2!C !2!B, | %23
 !2!B,2 !3!A,2 !3!A,2 | !4!F, !3!G, !3!A, !2!B, !2!C !2!^D | !2!E2 !2!^D2 !2!^D3/2 !2!E/ | %26
 !2!^D2 !2!C2 !2!C3/2 !2!D/ | !2!C2 !2!B,2 !2!B,2 | !3!G, !3!A, !3!^A, !2!B, !2!C !2!B, | %29
 !2!C2 !2!B,2 !2!B,2 | !1!G !1!F !1!F !1!E !1!E !2!^D | !2!^D2 !2!C2 !2!C2 | %32
 !3!^A, !2!C !1!E !1!=G !1!F !1!E | !2!B, !1!^G !1!F !1!E !2!^D !2!C | %34
 !2!B, !2!C !2!B, !3!A, !3!G, !4!F, | !4!E,2 [!3!G,!2!B,!1!E]2 x2 :| %36
 (3!2!C !2!D !2!^D !2!E2 !1!A2 | (3!1!G !1!A !1!^A !1!B2 !1!B2 | (3!1!G !1!A !1!^A !1!B2 !1!^B2 | %39
 !1!c2 !1!A2 !1!A2 | (3!1!A !1!G !1!B !1!A2 !1!F2 | !1!A2 [!2!E!1!G]2 [!2!E!1!G]2 | %42
{/!1!A} !1!G2 [!2!D!1!F]2 [!2!D!1!F]2 |{/!1!G} !1!F2 [!2!C!1!E]2 [!2!C!1!E]2 | %44
 (3!2!C !2!D !2!^D !2!E2 !1!A2 | (3!1!G !1!A !1!^A !1!B2 !1!B2 | (3!1!G !1!A !1!^A !1!B2 !1!^B2 | %47
 !1!c2 !1!A2 !1!A2 | (!1!G !1!F) !1!E !2!D !2!C !2!B, | (!1!F !1!E) !2!D !2!C !2!B, !3!A, | %50
 !3!G, !1!F !1!E !2!D !2!C !2!B, | !3!A,2 [!3!C!2!E!1!A]2 x2 |:[K:D] x !3!A, !2!B, !2!C !2!D !1!E | %53
 !1!^E2 [!3!A,!2!D!1!F]2 [!3!A,!2!D!1!F]2 | !1!F2 !1!G2 !1!F2 | !1!A2 !1!G2 !-(!!1!G !-)!!1!B | %56
 (!1!B !1!^A) (!1!c !1!B) (!1!G !1!E) | !2!D2 !2!C2 !2!C2 | !2!C !2!D !2!^D !1!E !1!F !1!G | %59
{/!1!G} !1!B2 !1!A2 !1!A2 | x !3!A, !2!B, !2!C !2!D !1!E | %61
 !1!^E2 [!3!A,!2!D!1!F]2 [!3!A,!2!D!1!F]2 | !1!F2 !1!G2 !1!F2 | !1!A2 !1!G2 !-(!!1!G !-)!!1!B | %64
 (!1!B !1!^A) (!1!c !1!B) (!1!G !1!E) | !2!D2 !2!C2 !2!C2 | !3!A, !2!B, !2!C !2!D !1!E !1!F | %67
 !2!D2 [!3!D!2!F!1!d]2 x2 :| %68
V:5
 !6!E,,2 !6!E,,2 !6!E,,2 | !6!E,,2 !6!E,,2 !6!E,,2 | !6!E,,2 !6!E,,2 !6!E,,2 | !6!E,,2 x4 |: %4
 !5!A,,6 | !6!E,,6 | !6!E,,4 !6!E,,2 | !5!A,,6 | !5!A,,4 !5!A,,2 | !6!E,,6 | !6!E,,6 | !5!A,,6 | %12
 !5!A,,6 | !6!E,,6 | !6!E,,4 !6!E,,2 | !5!A,,6 | !4!D,6 | !4!E,6 | !6!E,,4 !6!E,,2 | %19
 !5!A,,2 !5!A,,2 x2 :: !6!E,,6 | !6!E,,6 | !6!E,,6 | !5!B,,6 | !5!B,, x x2 x2 | !5!B,,6 | !6!F,,6 | %27
 !6!E,,6 | !6!E,,6 | !6!E,,6 | !6!E,,6 | !5!A,,6 | !5!^A,,6 | !5!B,,6 | !5!B,,6 | %35
 !6!E,,2 !6!E,,2 x2 :| !5!A,,6 | !6!E,,6 | !6!E,,4 !6!E,,2 | !5!A,,6 | !5!A,,4 !5!A,,2 | !6!E,,6 | %42
 !6!E,,6 | !5!A,,6 | !5!A,,6 | !6!E,,6 | !6!E,,4 !6!E,,2 | !5!A,,6 | !4!D,6 | !4!E,6 | %50
 !6!E,,4 !6!E,,2 | !5!A,,2 !5!A,,2 x2 |:[K:D] !4!D,6 | !4!D,6 | !4!^D,6 | !4!E,6 | !6!E,,6 | %57
 !5!A,,6 | !5!A,,4 !5!A,,2 | !4!D,6 | !4!D,6 | !4!D,6 | !4!^D,6 | !4!E,6 | !6!E,,6 | !5!A,,6 | %66
 !5!A,,4 !5!A,,2 | !4!D,2 !4!D,2 x2 :| %68
V:6
 x6 | x6 | x6 | x6 |: x2 x2 [!3!C!2!E]2 | x2 x2 [!3!D!2!E]2 | x6 | x2 [!3!C!2!E]2 [!3!C!2!E]2 | %8
 x6 | x6 | x6 | x6 | x2 x2 [!3!C!2!E]2 | x2 x2 [!3!D!2!E]2 | x6 | x2 [!3!C!2!E]2 [!3!C!2!E]2 | x6 | %17
 x6 | x6 | x6 :: x2 !4!E,2 !4!E,2 | x2 [!4!E,!3!G,]2 [!4!E,!3!G,]2 | %22
 x2 [!4!E,!3!G,]2 [!4!E,!3!G,]2 | x2 !4!^D,2 !4!D,2 | x6 | x2 [!4!F,!3!A,]2 [!4!F,!3!A,]2 | %26
 x2 [!4!F,!3!A,]2 [!4!F,!3!A,]2 | x2 [!4!E,!3!G,]2 [!4!E,!3!G,]2 | x2 !4!E,2 !4!E,2 | %29
 x2 [!4!E,!3!G,]2 [!4!E,!3!G,]2 | x2 [!4!E,!3!G,]2 [!4!E,!3!G,]2 | x2 [!4!E,!3!A,]2 [!4!E,!3!A,]2 | %32
 x2 !3!^A,2 !3!A,2 | x2 !3!G,2 !3!G,2 | x2 !4!^D,2 x2 | x6 :| x2 x2 [!3!C!2!E]2 | %37
 x2 x2 [!3!D!2!E]2 | x6 | x2 [!3!C!2!E]2 [!3!C!2!E]2 | x6 | x6 | x6 | x6 | x2 x2 [!3!C!2!E]2 | %45
 x2 x2 [!3!D!2!E]2 | x6 | x2 [!3!C!2!E]2 [!3!C!2!E]2 | x6 | x6 | x6 | x6 |:[K:D] x6 | x6 | %54
 x2 [!3!A,!2!B,]2 [!3!A,!2!B,]2 | x2 [!3!G,!2!B,]2 [!3!G,!2!B,] x | %56
 x2 [!3!G,!2!B,]2 [!3!G,!2!B,]2 | x2 [!4!E,!3!G,]2 [!4!E,!3!G,]2 | x2 x4 | %59
 x2 [!3!D!2!F]2 [!3!D!2!F]2 | x6 | x6 | x2 [!3!A,!2!B,]2 [!3!A,!2!B,]2 | %63
 x2 [!3!G,!2!B,]2 [!3!G,!2!B,] x | x2 [!3!G,!2!B,]2 [!3!G,!2!B,]2 | %65
 x2 [!4!E,!3!G,]2 [!4!E,!3!G,]2 | x2 x4 | x6 :| %68

